components/Common/Svg/svgs/mvpDevelopment.svg

<svg
  width="90"
  height="90"
  viewBox="0 0 90 90"
  fill="none"
  xmlns="http://www.w3.org/2000/svg"
>
  <circle
    opacity="0.5"
    cx="45"
    cy="45"
    r="45"
    fill="#FFE603"
  ></circle>
  <path
    d="M57.08 31.8799H29.0514C28.3477 31.8799 27.7773 32.4283 27.7773 33.1049V55.1549C27.7773 55.8314 28.3477 56.3799 29.0514 56.3799H57.08C57.7836 56.3799 58.354 55.8314 58.354 55.1549V33.1049C58.354 32.4283 57.7836 31.8799 57.08 31.8799Z"
    stroke="#161616"
    stroke-width="2"
    stroke-linecap="round"
    stroke-linejoin="round"
  ></path>
  <path
    d="M51.7765 43.6661L49.8145 42.1953C49.7093 42.1161 49.5867 42.0631 49.4569 42.0406C49.3271 42.0181 49.1938 42.0267 49.068 42.0658C48.4604 42.2561 47.8708 42.5 47.3064 42.7946C47.1895 42.8559 47.0889 42.944 47.0129 43.0519C46.9369 43.1597 46.8875 43.284 46.869 43.4146L46.5222 45.8422C46.39 45.9594 46.2606 46.0813 46.1339 46.2078C46.0073 46.3344 45.8854 46.4639 45.7682 46.5962L45.7681 46.5962L43.3406 46.9433C43.2101 46.9617 43.086 47.0109 42.9783 47.0867C42.8706 47.1626 42.7824 47.2629 42.7211 47.3795C42.426 47.9436 42.1816 48.5329 41.9909 49.1403C41.9516 49.2662 41.9428 49.3997 41.9653 49.5297C41.9878 49.6597 42.0408 49.7825 42.1201 49.8879L43.5917 51.8497C43.5811 52.026 43.5757 52.2037 43.5757 52.3827C43.5757 52.5618 43.581 52.7395 43.5917 52.9159L43.5917 52.916L42.1206 54.8777C42.0415 54.9829 41.9884 55.1055 41.9659 55.2352C41.9434 55.365 41.952 55.4983 41.9911 55.624C42.1814 56.2316 42.4253 56.821 42.72 57.3854C42.7813 57.5022 42.8695 57.6028 42.9773 57.6788C43.0851 57.7549 43.2095 57.8042 43.3402 57.8227L45.7681 58.1695C45.8853 58.3016 46.0072 58.4311 46.1338 58.5577C46.2604 58.6843 46.3898 58.8062 46.5222 58.9234L46.5222 58.9234L46.8693 61.3506C46.8878 61.481 46.937 61.6052 47.0128 61.7128C47.0887 61.8205 47.189 61.9086 47.3056 61.9699C47.8698 62.265 48.4592 62.5094 49.0667 62.7001C49.1926 62.7394 49.3261 62.7481 49.4562 62.7257C49.5862 62.7032 49.709 62.6501 49.8144 62.5709L51.7765 61.0995C51.9529 61.1101 52.1306 61.1155 52.3096 61.1155C52.4887 61.1155 52.6665 61.1102 52.8429 61.0995L52.843 61.0995L54.805 62.5703C54.9102 62.6495 55.0328 62.7025 55.1626 62.7251C55.2924 62.7476 55.4257 62.7389 55.5515 62.6998C56.1591 62.5096 56.7486 62.2657 57.3131 61.9711C57.4299 61.9098 57.5305 61.8216 57.6066 61.7138C57.6826 61.606 57.7319 61.4816 57.7504 61.351L58.0973 58.9235C58.2295 58.8063 58.3589 58.6844 58.4856 58.5578C58.6122 58.4312 58.7341 58.3018 58.8513 58.1695L58.8514 58.1695L61.2789 57.8224C61.4093 57.8039 61.5335 57.7548 61.6412 57.6789C61.7489 57.6031 61.8371 57.5027 61.8984 57.3862C62.1935 56.822 62.4379 56.2328 62.6286 55.6254C62.6679 55.4995 62.6767 55.366 62.6542 55.236C62.6317 55.106 62.5787 54.9832 62.4994 54.8777L61.0278 52.916C61.0384 52.7397 61.0437 52.562 61.0438 52.3829C61.0438 52.2039 61.0385 52.0262 61.0278 51.8498L61.0278 51.8497L62.4988 49.888C62.578 49.7828 62.6311 49.6602 62.6536 49.5304C62.6761 49.4007 62.6675 49.2674 62.6284 49.1416C62.4381 48.5341 62.1942 47.9446 61.8995 47.3803C61.8382 47.2634 61.75 47.1628 61.6422 47.0868C61.5344 47.0108 61.41 46.9615 61.2793 46.943L58.8514 46.5962C58.7342 46.464 58.6123 46.3346 58.4857 46.208C58.3591 46.0814 58.2296 45.9595 58.0973 45.8423L58.0973 45.8422L57.7501 43.4151C57.7317 43.2847 57.6825 43.1605 57.6067 43.0528C57.5308 42.9451 57.4305 42.857 57.3139 42.7957C56.7496 42.5007 56.1603 42.2563 55.5528 42.0656C55.4269 42.0263 55.2934 42.0175 55.1633 42.04C55.0333 42.0625 54.9105 42.1155 54.8051 42.1948L52.843 43.6661C52.6666 43.6555 52.4889 43.6502 52.3099 43.6501C52.1308 43.6501 51.953 43.6555 51.7766 43.6662L51.7765 43.6661Z"
    fill="#FFF281"
    stroke="#161616"
    stroke-width="2"
    stroke-linecap="round"
    stroke-linejoin="round"
  ></path>
  <path
    d="M52.31 57.5727C55.098 57.5727 57.3582 55.3117 57.3582 52.5227C57.3582 49.7336 55.098 47.4727 52.31 47.4727C49.5219 47.4727 47.2617 49.7336 47.2617 52.5227C47.2617 55.3117 49.5219 57.5727 52.31 57.5727Z"
    stroke="#161616"
    stroke-width="2"
    stroke-linecap="round"
    stroke-linejoin="round"
  ></path>
  <path
    d="M53.7536 51.8799L51.9179 53.6771L51 52.7785"
    stroke="#161616"
    stroke-width="1.5"
    stroke-linecap="round"
    stroke-linejoin="round"
  ></path>
</svg>

<svg width="90" height="90" viewBox="0 0 90 90" fill="none" xmlns="http://www.w3.org/2000/svg"><circle opacity=".5" cx="45" cy="45" r="45" fill="#FFE603"/><path d="M57.08 31.88H29.051c-.703 0-1.274.548-1.274 1.225v22.05c0 .676.57 1.225 1.274 1.225H57.08c.704 0 1.274-.549 1.274-1.225v-22.05c0-.677-.57-1.225-1.274-1.225Z" stroke="#161616" stroke-width="2" stroke-linecap="round" stroke-linejoin="round"/><path d="m51.776 43.666-1.962-1.47a.83.83 0 0 0-.746-.13c-.608.19-1.197.434-1.762.729a.83.83 0 0 0-.437.62l-.347 2.427a8.996 8.996 0 0 0-.754.754h0l-2.427.347a.831.831 0 0 0-.62.437c-.295.564-.54 1.153-.73 1.76a.831.831 0 0 0 .13.748l1.47 1.962a8.88 8.88 0 0 0 0 1.066h0l-1.47 1.962a.832.832 0 0 0-.13.746c.19.608.434 1.197.729 1.761a.832.832 0 0 0 .62.438l2.428.346a8.935 8.935 0 0 0 .754.754h0l.347 2.428a.832.832 0 0 0 .437.619c.564.295 1.153.54 1.76.73a.833.833 0 0 0 .748-.13l1.962-1.47a8.886 8.886 0 0 0 1.067 0h0l1.962 1.47a.832.832 0 0 0 .746.13c.608-.19 1.198-.434 1.762-.729a.833.833 0 0 0 .437-.62l.347-2.428a8.937 8.937 0 0 0 .754-.754h0l2.428-.347a.832.832 0 0 0 .62-.436c.294-.564.539-1.153.73-1.76a.831.831 0 0 0-.13-.748l-1.471-1.962a8.964 8.964 0 0 0 0-1.066h0l1.47-1.962a.83.83 0 0 0 .13-.746 10.74 10.74 0 0 0-.728-1.762.832.832 0 0 0-.62-.437l-2.429-.347a8.878 8.878 0 0 0-.754-.754h0l-.347-2.427a.831.831 0 0 0-.436-.62 10.753 10.753 0 0 0-1.761-.73.832.832 0 0 0-.748.13l-1.962 1.471a8.97 8.97 0 0 0-1.066 0h0Z" fill="#FFF281" stroke="#161616" stroke-width="2" stroke-linecap="round" stroke-linejoin="round"/><path d="M52.31 57.573a5.05 5.05 0 0 0 5.048-5.05 5.05 5.05 0 1 0-5.048 5.05Z" stroke="#161616" stroke-width="2" stroke-linecap="round" stroke-linejoin="round"/><path d="m53.754 51.88-1.836 1.797L51 52.78" stroke="#161616" stroke-width="1.5" stroke-linecap="round" stroke-linejoin="round"/></svg>
